!!!COM:	Bach, Johann Sebastian
!!!CDT:	1685/02/21/-1750/07/28/
!!!OTL@@DE:	Herr Jesu Christ, du h&ouml;chstes Gut
!!!SCT:	BWV 113/8
!!!PC#:	294
!!!AGN:	chorale
**kern	**kern	**kern	**kern
*ICvox	*ICvox	*ICvox	*ICvox
*Ibass	*Itenor	*Ialto	*Isoprn
*I"Bass	*I"Tenor	*I"Alto	*I"Soprano
*>[A,A,B]	*>[A,A,B]	*>[A,A,B]	*>[A,A,B]
*>norep[A,B]	*>norep[A,B]	*>norep[A,B]	*>norep[A,B]
*>A	*>A	*>A	*>A
*clefF4	*clefGv2	*clefG2	*clefG2
*k[f#c#]	*k[f#c#]	*k[f#c#]	*k[f#c#]
*b:	*b:	*b:	*b:
*M4/4	*M4/4	*M4/4	*M4/4
*met(c)	*met(c)	*met(c)	*met(c)
*MM100	*MM100	*MM100	*MM100
8BL	4d	4f#	4b
8AJ	.	.	.
=1	=1	=1	=1
4G	8c#L	4e	4b
.	8BJ	.	.
8F#L	4c#	4f#	4a#
8EJ	.	.	.
4D	4d	4f#	4b
4C#	4e	8g#L	4cc#
.	.	8a#J	.
=2	=2	=2	=2
4BB	4.f#	4b	4dd
4FF#	.	4a#	4cc#
.	8e	.	.
4BB;	4d;	4f#;	4b;
4B	4d	8f#L	4b
.	.	8g#J	.
=3	=3	=3	=3
8AL	4e	4anX	4cc#
8GnXJ	.	.	.
8F#L	4A	8aL	4cc#
8EJ	.	8gnXJ	.
4.D	8dL	4f#	4ff#
.	8c#J	.	.
.	8BL	8g#L	4ee
8C#	8c#J	8a#J	.
=4	=4	=4	=4
8BBL	8dL	2b	2dd
8C#	8eJ	.	.
8D	4f#	.	.
8EJ	.	.	.
4F#;	4f#;	4a#;	4cc#;
=:|!	=:|!	=:|!	=:|!
*>B	*>B	*>B	*>B
4D	8AL	4anX	4ff#
.	8BJ	.	.
=5	=5	=5	=5
4A	4c#	8aL	4ee
.	.	8gJ	.
4B	8dL	8f#L	4dd
.	8eJ	8g#J	.
4F#	4f#	8a#L	8cc#L
.	.	8bJ	8ddJ
8EL	4gnX	4cc#	4ee
8F#J	.	.	.
=6	=6	=6	=6
8GL	4f#	4b	4dd
8EJ	.	.	.
4F#	8c#L	4a#	4cc#
.	8eJ	.	.
4BB;	4d;	4f#;	4b;
4B	4d	8f#L	4dd
.	.	8g#J	.
=7	=7	=7	=7
4A	8eL	4.anX	4cc#
.	8EJ	.	.
8D#L	8F#L	.	4b
8E#J	8G#J	8g#	.
4F#	8AL	8f#L	8aL
.	8BJ	8e#J	8g#J
4FF#	8AL	4f#	8f#L
.	8G#J	.	8g#J
=8	=8	=8	=8
8F#L	4.F#	4c#	8aL
8EnXJ	.	.	8bJ
8DL	.	8f#L	4b
8EJ	8G#	8eJ	.
4AA;	4A;	4e;	4cc#;
4AA#	4c#	4f#	4cc#
=9	=9	=9	=9
4BB	8BL	8f#L	4dd
.	8f#J	8bJ	.
4C#	4e	8aL	4ee
.	.	8gnXJ	.
4D	4.d	4f#	4.ff#
8EL	.	8g#L	.
8F#J	8c#	8a#J	8ee
=10	=10	=10	=10
8GnXL	4B	8bL	4dd
8F#J	.	8anXJ	.
4E	8c#L	4gnX	4ee
.	8BJ	.	.
4F#	8A#L	2f#	2cc#
.	8c#J	.	.
4FF#	4e	.	.
=11	=11	=11	=11
2.BB;	2.d#;	2.f#;	2.b;
==	==	==	==
*-	*-	*-	*-
!!!hum2abc: -Q ''
!!!title: @{PC#}. @{OTL@@DE}
!!!YOR1: 371 vierstimmige Choralges&auml;nge von Johann Sebastian Bach, 
!!!YOR2: 4th ed. by Alfred D&ouml;rffel (Leipzig: Breitkopf und H&auml;rtel, 
!!!YOR2: c.1875). 178 pp. Plate "V.A.10".  reprint: J.S. Bach, 371 Four-Part 
!!!YOR4: Chorales (New York: Associated Music Publishers, Inc., c.1940).
!!!SMS: B&H, 4th ed, Alfred D&ouml;rffel, c.1875, plate V.A.10
!!!EED:  Craig Stuart Sapp
!!!EEV:  2009/05/22
